lut/aquaverse_fun.cube
LUT_3D_SIZE 33
DOMAIN_MIN 0.0 0.0 0.0
DOMAIN_MAX 1.0 1.0 1.0
0.050000 0.030000 0.040000
0.082812 0.030000 0.040000
0.115625 0.030000 0.040000
0.148438 0.030000 0.040000
0.181250 0.030000 0.040000
0.214062 0.030000 0.040000
0.246875 0.030000 0.040000
0.279688 0.030000 0.040000
0.312500 0.030000 0.040000
0.345313 0.030000 0.040000
0.378125 0.030000 0.040000
0.410938 0.030000 0.040000
0.443750 0.030000 0.040000
0.476562 0.030000 0.040000
0.509375 0.030000 0.040000
0.542188 0.030000 0.040000
0.575000 0.030000 0.040000
0.607813 0.030000 0.040000
0.640625 0.030000 0.040000
0.673438 0.030000 0.040000
0.706250 0.030000 0.040000
0.739063 0.030000 0.040000
0.771875 0.030000 0.040000
0.804688 0.030000 0.040000
0.837500 0.030000 0.040000
0.870313 0.030000 0.040000
0.903125 0.030000 0.040000
0.935938 0.030000 0.040000
0.968750 0.030000 0.040000
1.000000 0.030000 0.040000
1.000000 0.030000 0.040000
1.000000 0.030000 0.040000
1.000000 0.030000 0.040000
0.050000 0.062812 0.040000
0.082812 0.062812 0.040000
0.115625 0.062812 0.040000
0.148438 0.062812 0.040000
0.181250 0.062812 0.040000
0.214062 0.062812 0.040000
0.246875 0.062812 0.040000
0.279688 0.062812 0.040000
0.312500 0.062812 0.040000
0.345313 0.062812 0.040000
0.378125 0.062812 0.040000
0.410938 0.062812 0.040000
0.443750 0.062812 0.040000
0.476562 0.062812 0.040000
0.509375 0.062812 0.040000
0.542188 0.062812 0.040000
0.575000 0.062812 0.040000
0.607813 0.062812 0.040000
0.640625 0.062812 0.040000
0.673438 0.062812 0.040000
0.706250 0.062812 0.040000
0.739063 0.062812 0.040000
0.771875 0.062812 0.040000
0.804688 0.062812 0.040000
0.837500 0.062812 0.040000
0.870313 0.062812 0.040000
0.903125 0.062812 0.040000
0.935938 0.062812 0.040000
0.968750 0.062812 0.040000
1.000000 0.062812 0.040000
1.000000 0.062812 0.040000
1.000000 0.062812 0.040000
1.000000 0.062812 0.040000
0.050000 0.095625 0.040000
0.082812 0.095625 0.040000
0.115625 0.095625 0.040000
0.148438 0.095625 0.040000
0.181250 0.095625 0.040000
0.214062 0.095625 0.040000
0.246875 0.095625 0.040000
0.279688 0.095625 0.040000
0.312500 0.095625 0.040000
0.345313 0.095625 0.040000
0.378125 0.095625 0.040000
0.410938 0.095625 0.040000
0.443750 0.095625 0.040000
0.476562 0.095625 0.040000
0.509375 0.095625 0.040000
0.542188 0.095625 0.040000
0.575000 0.095625 0.040000
0.607813 0.095625 0.040000
0.640625 0.095625 0.040000
0.673438 0.095625 0.040000
0.706250 0.095625 0.040000
0.739063 0.095625 0.040000
0.771875 0.095625 0.040000
0.804688 0.095625 0.040000
0.837500 0.095625 0.040000
0.870313 0.095625 0.040000
0.903125 0.095625 0.040000
0.935938 0.095625 0.040000
0.968750 0.095625 0.040000
1.000000 0.095625 0.040000
1.000000 0.095625 0.040000
1.000000 0.095625 0.040000
1.000000 0.095625 0.040000
0.050000 0.128438 0.040000
0.082812 0.128438 0.040000
0.115625 0.128438 0.040000
0.148438 0.128438 0.040000
0.181250 0.128438 0.040000
0.214062 0.128438 0.040000
0.246875 0.128438 0.040000
0.279688 0.128438 0.040000
0.312500 0.128438 0.040000
0.345313 0.128438 0.040000
0.378125 0.128438 0.040000
0.410938 0.128438 0.040000
0.443750 0.128438 0.040000
0.476562 0.128438 0.040000
0.509375 0.128438 0.040000
0.542188 0.128438 0.040000
0.575000 0.128438 0.040000
0.607813 0.128438 0.040000
0.640625 0.128438 0.040000
0.673438 0.128438 0.040000
0.706250 0.128438 0.040000
0.739063 0.128438 0.040000
0.771875 0.128438 0.040000
0.804688 0.128438 0.040000
0.837500 0.128438 0.040000
0.870313 0.128438 0.040000
0.903125 0.128438 0.040000
0.935938 0.128438 0.040000
0.968750 0.128438 0.040000
1.000000 0.128438 0.040000
1.000000 0.128438 0.040000
1.000000 0.128438 0.040000
1.000000 0.128438 0.040000
0.050000 0.161250 0.040000
0.082812 0.161250 0.040000
0.115625 0.161250 0.040000
0.148438 0.161250 0.040000
0.181250 0.161250 0.040000
0.214062 0.161250 0.040000
0.246875 0.161250 0.040000
0.279688 0.161250 0.040000
0.312500 0.161250 0.040000
0.345313 0.161250 0.040000
0.378125 0.161250 0.040000
0.410938 0.161250 0.040000
0.443750 0.161250 0.040000
0.476562 0.161250 0.040000
0.509375 0.161250 0.040000
0.542188 0.161250 0.040000
0.575000 0.161250 0.040000
0.607813 0.161250 0.040000
0.640625 0.161250 0.040000
0.673438 0.161250 0.040000
0.706250 0.161250 0.040000
0.739063 0.161250 0.040000
0.771875 0.161250 0.040000
0.804688 0.161250 0.040000
0.837500 0.161250 0.040000
0.870313 0.161250 0.040000
0.903125 0.161250 0.040000
0.935938 0.161250 0.040000
0.968750 0.161250 0.040000
1.000000 0.161250 0.040000
1.000000 0.161250 0.040000
1.000000 0.161250 0.040000
1.000000 0.161250 0.040000
0.050000 0.194062 0.040000
0.082812 0.194062 0.040000
0.115625 0.194062 0.040000
0.148438 0.194062 0.040000
0.181250 0.194062 0.040000
0.214062 0.194062 0.040000
0.246875 0.194062 0.040000
0.279688 0.194062 0.040000
0.312500 0.194062 0.040000
0.345313 0.194062 0.040000
0.378125 0.194062 0.040000
0.410938 0.194062 0.040000
0.443750 0.194062 0.040000
0.476562 0.194062 0.040000
0.509375 0.194062 0.040000
0.542188 0.194062 0.040000
0.575000 0.194062 0.040000
0.607813 0.194062 0.040000
0.640625 0.194062 0.040000
0.673438 0.194062 0.040000
0.706250 0.194062 0.040000
0.739063 0.194062 0.040000
0.771875 0.194062 0.040000
0.804688 0.194062 0.040000
0.837500 0.194062 0.040000
0.870313 0.194062 0.040000
0.903125 0.194062 0.040000
0.935938 0.194062 0.040000
0.968750 0.194062 0.040000
1.000000 0.194062 0.040000
1.000000 0.194062 0.040000
1.000000 0.194062 0.040000
1.000000 0.194062 0.040000
0.050000 0.226875 0.040000
0.082812 0.226875 0.040000
0.115625 0.226875 0.040000
0.148438 0.226875 0.040000
0.181250 0.226875 0.040000
0.214062 0.226875 0.040000
0.246875 0.226875 0.040000
0.279688 0.226875 0.040000
0.312500 0.226875 0.040000
0.345313 0.226875 0.040000
0.378125 0.226875 0.040000
0.410938 0.226875 0.040000
0.443750 0.226875 0.040000
0.476562 0.226875 0.040000
0.509375 0.226875 0.040000
0.542188 0.226875 0.040000
0.575000 0.226875 0.040000
0.607813 0.226875 0.040000
0.640625 0.226875 0.040000
0.673438 0.226875 0.040000
0.706250 0.226875 0.040000
0.739063 0.226875 0.040000
0.771875 0.226875 0.040000
0.804688 0.226875 0.040000
0.837500 0.226875 0.040000
0.870313 0.226875 0.040000
0.903125 0.226875 0.040000
0.935938 0.226875 0.040000
0.968750 0.226875 0.040000
1.000000 0.226875 0.040000
1.000000 0.226875 0.040000
1.000000 0.226875 0.040000
1.000000 0.226875 0.040000
0.050000 0.259688 0.040000
0.082812 0.259688 0.040000
0.115625 0.259688 0.040000
0.148438 0.259688 0.040000
0.181250 0.259688 0.040000
0.214062 0.259688 0.040000
0.246875 0.259688 0.040000
0.279688 0.259688 0.040000
0.312500 0.259688 0.040000
0.345313 0.259688 0.040000
0.378125 0.259688 0.040000
0.410938 0.259688 0.040000
0.443750 0.259688 0.040000
0.476562 0.259688 0.040000
0.509375 0.259688 0.040000
0.542188 0.259688 0.040000
0.575000 0.259688 0.040000
0.607813 0.259688 0.040000
0.640625 0.259688 0.040000
0.673438 0.259688 0.040000
0.706250 0.259688 0.040000
0.739063 0.259688 0.040000
0.771875 0.259688 0.040000
0.804688 0.259688 0.040000
0.837500 0.259688 0.040000
0.870313 0.259688 0.040000
0.903125 0.259688 0.040000
0.935938 0.259688 0.040000
0.968750 0.259688 0.040000
1.000000 0.259688 0.040000
1.000000 0.259688 0.040000
1.000000 0.259688 0.040000
1.000000 0.259688 0.040000
0.050000 0.292500 0.040000
0.082812 0.292500 0.040000
0.115625 0.292500 0.040000
0.148438 0.292500 0.040000
0.181250 0.292500 0.040000
0.214062 0.292500 0.040000
0.246875 0.292500 0.040000
0.279688 0.292500 0.040000
0.312500 0.292500 0.040000
0.345313 0.292500 0.040000
0.378125 0.292500 0.040000
0.410938 0.292500 0.040000
0.443750 0.292500 0.040000
0.476562 0.292500 0.040000
0.509375 0.292500 0.040000
0.542188 0.292500 0.040000
0.575000 0.292500 0.040000
0.607813 0.292500 0.040000
0.640625 0.292500 0.040000
0.673438 0.292500 0.040000
0.706250 0.292500 0.040000
0.739063 0.292500 0.040000
0.771875 0.292500 0.040000
0.804688 0.292500 0.040000
0.837500 0.292500 0.040000
0.870313 0.292500 0.040000
0.903125 0.292500 0.040000
0.935938 0.292500 0.040000
0.968750 0.292500 0.040000
1.000000 0.292500 0.040000
1.000000 0.292500 0.040000
1.000000 0.292500 0.040000
1.000000 0.292500 0.040000
0.050000 0.325313 0.040000
0.082812 0.325313 0.040000
0.115625 0.325313 0.040000
0.148438 0.325313 0.040000
0.181250 0.325313 0.040000
0.214062 0.325313 0.040000
0.246875 0.325313 0.040000
0.279688 0.325313 0.040000
0.312500 0.325313 0.040000
0.345313 0.325313 0.040000
0.378125 0.325313 0.040000
0.410938 0.325313 0.040000
0.443750 0.325313 0.040000
0.476562 0.325313 0.040000
0.509375 0.325313 0.040000
0.542188 0.325313 0.040000
0.575000 0.325313 0.040000
0.607813 0.325313 0.040000
0.640625 0.325313 0.040000
0.673438 0.325313 0.040000
0.706250 0.325313 0.040000
0.739063 0.325313 0.040000
0.771875 0.325313 0.040000
0.804688 0.325313 0.040000
0.837500 0.325313 0.040000
0.870313 0.325313 0.040000
0.903125 0.325313 0.040000
0.935938 0.325313 0.040000
0.968750 0.325313 0.040000
1.000000 0.325313 0.040000
1.000000 0.325313 0.040000
1.000000 0.325313 0.040000
1.000000 0.325313 0.040000
0.050000 0.358125 0.040000
0.082812 0.358125 0.040000
0.115625 0.358125 0.040000
0.148438 0.358125 0.040000
0.181250 0.358125 0.040000
0.214062 0.358125 0.040000
0.246875 0.358125 0.040000
0.279688 0.358125 0.040000
0.312500 0.358125 0.040000
0.345313 0.358125 0.040000
0.378125 0.358125 0.040000
0.410938 0.358125 0.040000
0.443750 0.358125 0.040000
0.476562 0.358125 0.040000
0.509375 0.358125 0.040000
0.542188 0.358125 0.040000
0.575000 0.358125 0.040000
0.607813 0.358125 0.040000
0.640625 0.358125 0.040000
0.673438 0.358125 0.040000
0.706250 0.358125 0.040000
0.739063 0.358125 0.040000
0.771875 0.358125 0.040000
0.804688 0.358125 0.040000
0.837500 0.358125 0.040000
0.870313 0.358125 0.040000
0.903125 0.358125 0.040000
0.935938 0.358125 0.040000
0.968750 0.358125 0.040000
1.000000 0.358125 0.040000
1.000000 0.358125 0.040000
1.000000 0.358125 0.040000
1.000000 0.358125 0.040000
0.050000 0.390938 0.040000
0.082812 0.390938 0.040000
0.115625 0.390938 0.040000
0.148438 0.390938 0.040000
0.181250 0.390938 0.040000
0.214062 0.390938 0.040000
0.246875 0.390938 0.040000
0.279688 0.390938 0.040000
0.312500 0.390938 0.040000
0.345313 0.390938 0.040000
0.378125 0.390938 0.040000
0.410938 0.390938 0.040000
0.443750 0.390938 0.040000
0.476562 0.390938 0.040000
0.509375 0.390938 0.040000
0.542188 0.390938 0.040000
0.575000 0.390938 0.040000
0.607813 0.390938 0.040000
0.640625 0.390938 0.040000
0.673438 0.390938 0.040000
0.706250 0.390938 0.040000
0.739063 0.390938 0.040000
0.771875 0.390938 0.040000
0.804688 0.390938 0.040000
0.837500 0.390938 0.040000
0.870313 0.390938 0.040000
0.903125 0.390938 0.040000
0.935938 0.390938 0.040000
0.968750 0.390938 0.040000
1.000000 0.390938 0.040000
1.000000 0.390938 0.040000
1.000000 0.390938 0.040000
1.000000 0.390938 0.040000
0.050000 0.423750 0.040000
0.082812 0.423750 0.040000
0.115625 0.423750 0.040000
0.148438 0.423750 0.040000
0.181250 0.423750 0.040000
0.214062 0.423750 0.040000
0.246875 0.423750 0.040000
0.279688 0.423750 0.040000
0.312500 0.423750 0.040000
0.345313 0.423750 0.040000
0.378125 0.423750 0.040000
0.410938 0.423750 0.040000
0.443750 0.423750 0.040000
0.476562 0.423750 0.040000
0.509375 0.423750 0.040000
0.542188 0.423750 0.040000
0.575000 0.423750 0.040000
0.607813 0.423750 0.040000
0.640625 0.423750 0.040000
0.673438 0.423750 0.040000
0.706250 0.423750 0.040000
0.739063 0.423750 0.040000
0.771875 0.423750 0.040000
0.804688 0.423750 0.040000
0.837500 0.423750 0.040000
0.870313 0.423750 0.040000
0.903125 0.423750 0.040000
0.935938 0.423750 0.040000
0.968750 0.423750 0.040000
1.000000 0.423750 0.040000
1.000000 0.423750 0.040000
1.000000 0.423750 0.040000
1.000000 0.423750 0.040000
0.050000 0.456562 0.040000
0.082812 0.456562 0.040000
0.115625 0.456562 0.040000
0.148438 0.456562 0.040000
0.181250 0.456562 0.040000
0.214062 0.456562 0.040000
0.246875 0.456562 0.040000
0.279688 0.456562 0.040000
0.312500 0.456562 0.040000
0.345313 0.456562 0.040000
0.378125 0.456562 0.040000
0.410938 0.456562 0.040000
0.443750 0.456562 0.040000
0.476562 0.456562 0.040000
0.509375 0.456562 0.040000
0.542188 0.456562 0.040000
0.575000 0.456562 0.040000
0.607813 0.456562 0.040000
0.640625 0.456562 0.040000
0.673438 0.456562 0.040000
0.706250 0.456562 0.040000
0.739063 0.456562 0.040000
0.771875 0.456562 0.040000
0.804688 0.456562 0.040000
0.837500 0.456562 0.040000
0.870313 0.456562 0.040000
0.903125 0.456562 0.040000
0.935938 0.456562 0.040000
0.968750 0.456562 0.040000
1.000000 0.456562 0.040000
1.000000 0.456562 0.040000
1.000000 0.456562 0.040000
1.000000 0.456562 0.040000
0.050000 0.489375 0.040000
0.082812 0.489375 0.040000
0.115625 0.489375 0.040000
0.148438 0.489375 0.040000
0.181250 0.489375 0.040000
0.214062 0.489375 0.040000
0.246875 0.489375 0.040000
0.279688 0.489375 0.040000
0.312500 0.489375 0.040000
0.345313 0.489375 0.040000
0.378125 0.489375 0.040000
0.410938 0.489375 0.040000
0.443750 0.489375 0.040000
0.476562 0.489375 0.040000
0.509375 0.489375 0.040000
0.542188 0.489375 0.040000
0.575000 0.489375 0.040000
0.607813 0.489375 0.040000
0.640625 0.489375 0.040000
0.673438 0.489375 0.040000
0.706250 0.489375 0.040000
0.739063 0.489375 0.040000
0.771875 0.489375 0.040000
0.804688 0.489375 0.040000
0.837500 0.489375 0.040000
0.870313 0.489375 0.040000
0.903125 0.489375 0.040000
0.935938 0.489375 0.040000
0.968750 0.489375 0.040000
1.000000 0.489375 0.040000
1.000000 0.489375 0.040000
1.000000 0.489375 0.040000
1.000000 0.489375 0.040000
0.050000 0.522188 0.040000
0.082812 0.522188 0.040000
0.115625 0.522188 0.040000
0.148438 0.522188 0.040000
0.181250 0.522188 0.040000
0.214062 0.522188 0.040000
0.246875 0.522188 0.040000
0.279688 0.522188 0.040000
0.312500 0.522188 0.040000
0.345313 0.522188 0.040000
0.378125 0.522188 0.040000
0.410938 0.522188 0.040000
0.443750 0.522188 0.040000
0.476562 0.522188 0.040000
0.509375 0.522188 0.040000
0.542188 0.522188 0.040000
0.575000 0.522188 0.040000
0.607813 0.522188 0.040000
0.640625 0.522188 0.040000
0.673438 0.522188 0.040000
0.706250 0.522188 0.040000
0.739063 0.522188 0.040000
0.771875 0.522188 0.040000
0.804688 0.522188 0.040000
0.837500 0.522188 0.040000
0.870313 0.522188 0.040000
0.903125 0.522188 0.040000
0.935938 0.522188 0.040000
0.968750 0.522188 0.040000
1.000000 0.522188 0.040000
1.000000 0.522188 0.040000
1.000000 0.522188 0.040000
1.000000 0.522188 0.040000
0.050000 0.555000 0.040000
0.082812 0.555000 0.040000
0.115625 0.555000 0.040000
0.148438 0.555000 0.040000
0.181250 0.555000 0.040000
0.214062 0.555000 0.040000
0.246875 0.555000 0.040000
0.279688 0.555000 0.040000
0.312500 0.555000 0.040000
0.345313 0.555000 0.040000
0.378125 0.555000 0.040000
0.410938 0.555000 0.040000
0.443750 0.555000 0.040000
0.476562 0.555000 0.040000
0.509375 0.555000 0.040000
0.542188 0.555000 0.040000
0.575000 0.555000 0.040000
0.607813 0.555000 0.040000
0.640625 0.555000 0.040000
0.673438 0.555000 0.040000
0.706250 0.555000 0.040000
0.739063 0.555000 0.040000
0.771875 0.555000 0.040000
0.804688 0.555000 0.040000
0.837500 0.555000 0.040000
0.870313 0.555000 0.040000
0.903125 0.555000 0.040000
0.935938 0.555000 0.040000
0.968750 0.555000 0.040000
1.000000 0.555000 0.040000
1.000000 0.555000 0.040000
1.000000 0.555000 0.040000
1.000000 0.555000 0.040000
0.050000 0.587813 0.040000
0.082812 0.587813 0.040000
0.115625 0.587813 0.040000
0.148438 0.587813 0.040000
0.181250 0.587813 0.040000
0.214062 0.587813 0.040000
0.246875 0.587813 0.040000
0.279688 0.587813 0.040000
0.312500 0.587813 0.040000
0.345313 0.587813 0.040000
0.378125 0.587813 0.040000
0.410938 0.587813 0.040000
0.443750 0.587813 0.040000
0.476562 0.587813 0.040000
0.509375 0.587813 0.040000
0.542188 0.587813 0.040000
0.575000 0.587813 0.040000
0.607813 0.587813 0.040000
0.640625 0.587813 0.040000
0.673438 0.587813 0.040000
0.706250 0.587813 0.040000
0.739063 0.587813 0.040000
0.771875 0.587813 0.040000
0.804688 0.587813 0.040000
0.837500 0.587813 0.040000
0.870313 0.587813 0.040000
0.903125 0.587813 0.040000
0.935938 0.587813 0.040000
0.968750 0.587813 0.040000
1.000000 0.587813 0.040000
1.000000 0.587813 0.040000
1.000000 0.587813 0.040000
1.000000 0.587813 0.040000
0.050000 0.620625 0.040000
0.082812 0.620625 0.040000
0.115625 0.620625 0.040000
0.148438 0.620625 0.040000
0.181250 0.620625 0.040000
0.214062 0.620625 0.040000
0.246875 0.620625 0.040000
0.279688 0.620625 0.040000
0.312500 0.620625 0.040000
0.345313 0.620625 0.040000
0.378125 0.620625 0.040000
0.410938 0.620625 0.040000
0.443750 0.620625 0.040000
0.476562 0.620625 0.040000
0.509375 0.620625 0.040000
0.542188 0.620625 0.040000
0.575000 0.620625 0.040000
0.607813 0.620625 0.040000
0.640625 0.620625 0.040000
0.673438 0.620625 0.040000
0.706250 0.620625 0.040000
0.739063 0.620625 0.040000
0.771875 0.620625 0.040000
0.804688 0.620625 0.040000
0.837500 0.620625 0.040000
0.870313 0.620625 0.040000
0.903125 0.620625 0.040000
0.935938 0.620625 0.040000
0.968750 0.620625 0.040000
1.000000 0.620625 0.040000
1.000000 0.620625 0.040000
1.000000 0.620625 0.040000
1.000000 0.620625 0.040000
0.050000 0.653438 0.040000
0.082812 0.653438 0.040000
0.115625 0.653438 0.040000
0.148438 0.653438 0.040000
0.181250 0.653438 0.040000
0.214062 0.653438 0.040000
0.246875 0.653438 0.040000
0.279688 0.653438 0.040000
0.312500 0.653438 0.040000
0.345313 0.653438 0.040000
0.378125 0.653438 0.040000
0.410938 0.653438 0.040000
0.443750 0.653438 0.040000
0.476562 0.653438 0.040000
0.509375 0.653438 0.040000
0.542188 0.653438 0.040000
0.575000 0.653438 0.040000
0.607813 0.653438 0.040000
0.640625 0.653438 0.040000
0.673438 0.653438 0.040000
0.706250 0.653438 0.040000
0.739063 0.653438 0.040000
0.771875 0.653438 0.040000
0.804688 0.653438 0.040000
0.837500 0.653438 0.040000
0.870313 0.653438 0.040000
0.903125 0.653438 0.040000
0.935938 0.653438 0.040000
0.968750 0.653438 0.040000
1.000000 0.653438 0.040000
1.000000 0.653438 0.040000
1.000000 0.653438 0.040000
1.000000 0.653438 0.040000
0.050000 0.686250 0.040000
0.082812 0.686250 0.040000
0.115625 0.686250 0.040000
0.148438 0.686250 0.040000
0.181250 0.686250 0.040000
0.214062 0.686250 0.040000
0.246875 0.686250 0.040000
0.279688 0.686250 0.040000
0.312500 0.686250 0.040000
0.345313 0.686250 0.040000
0.378125 0.686250 0.040000
0.410938 0.686250 0.040000
0.443750 0.686250 0.040000
0.476562 0.686250 0.040000
0.509375 0.686250 0.040000
0.542188 0.686250 0.040000
0.575000 0.686250 0.040000
0.607813 0.686250 0.040000
0.640625 0.686250 0.040000
0.673438 0.686250 0.040000
0.706250 0.686250 0.040000
0.739063 0.686250 0.040000
0.771875 0.686250 0.040000
0.804688 0.686250 0.040000
0.837500 0.686250 0.040000
0.870313 0.686250 0.040000
0.903125 0.686250 0.040000
0.935938 0.686250 0.040000
0.968750 0.686250 0.040000
1.000000 0.686250 0.040000
1.000000 0.686250 0.040000
1.000000 0.686250 0.040000
1.000000 0.686250 0.040000
0.050000 0.719063 0.040000
0.082812 0.719063 0.040000
0.115625 0.719063 0.040000
0.148438 0.719063 0.040000
0.181250 0.719063 0.040000
0.214062 0.719063 0.040000
0.246875 0.719063 0.040000
0.279688 0.719063 0.040000
0.312500 0.719063 0.040000
0.345313 0.719063 0.040000
0.378125 0.719063 0.040000
0.410938 0.719063 0.040000
0.443750 0.719063 0.040000
0.476562 0.719063 0.040000
0.509375 0.719063 0.040000
0.542188 0.719063 0.040000
0.575000 0.719063 0.040000
0.607813 0.719063 0.040000
0.640625 0.719063 0.040000
0.673438 0.719063 0.040000
0.706250 0.719063 0.040000
0.739063 0.719063 0.040000
0.771875 0.719063 0.040000
0.804688 0.719063 0.040000
0.837500 0.719063 0.040000
0.870313 0.719063 0.040000
0.903125 0.719063 0.040000
0.935938 0.719063 0.040000
0.968750 0.719063 0.040000
1.000000 0.719063 0.040000
1.000000 0.719063 0.040000
1.000000 0.719063 0.040000
1.000000 0.719063 0.040000
0.050000 0.751875 0.040000
0.082812 0.751875 0.040000
0.115625 0.751875 0.040000
0.148438 0.751875 0.040000
0.181250 0.751875 0.040000
0.214062 0.751875 0.040000
0.246875 0.751875 0.040000
0.279688 0.751875 0.040000
0.312500 0.751875 0.040000
0.345313 0.751875 0.040000
0.378125 0.751875 0.040000
0.410938 0.751875 0.040000
0.443750 0.751875 0.040000
0.476562 0.751875 0.040000
0.509375 0.751875 0.040000
0.542188 0.751875 0.040000
0.575000 0.751875 0.040000
0.607813 0.751875 0.040000
0.640625 0.751875 0.040000
0.673438 0.751875 0.040000
0.706250 0.751875 0.040000
0.739063 0.751875 0.040000
0.771875 0.751875 0.040000
0.804688 0.751875 0.040000
0.837500 0.751875 0.040000
0.870313 0.751875 0.040000
0.903125 0.751875 0.040000
0.935938 0.751875 0.040000
0.968750 0.751875 0.040000
1.000000 0.751875 0.040000
1.000000 0.751875 0.040000
1.000000 0.751875 0.040000
1.000000 0.751875 0.040000
0.050000 0.784688 0.040000
0.082812 0.784688 0.040000
0.115625 0.784688 0.040000
0.148438 0.784688 0.040000
0.181250 0.784688 0.040000
0.214062 0.784688 0.040000
0.246875 0.784688 0.040000
0.279688 0.784688 0.040000
0.312500 0.784688 0.040000
0.345313 0.784688 0.040000
0.378125 0.784688 0.040000
0.410938 0.784688 0.040000
0.443750 0.784688 0.040000
0.476562 0.784688 0.040000
0.509375 0.784688 0.040000
0.542188 0.784688 0.040000
0.575000 0.784688 0.040000
0.607813 0.784688 0.040000
0.640625 0.784688 0.040000
0.673438 0.784688 0.040000
0.706250 0.784688 0.040000
0.739063 0.784688 0.040000
0.771875 0.784688 0.040000
0.804688 0.784688 0.040000
0.837500 0.784688 0.040000
0.870313 0.784688 0.040000
0.903125 0.784688 0.040000
0.935938 0.784688 0.040000
0.968750 0.784688 0.040000
1.000000 0.784688 0.040000
1.000000 0.784688 0.040000
1.000000 0.784688 0.040000
1.000000 0.784688 0.040000
0.050000 0.817500 0.040000
0.082812 0.817500 0.040000
0.115625 0.817500 0.040000
0.148438 0.817500 0.040000
0.181250 0.817500 0.040000
0.214062 0.817500 0.040000
0.246875 0.817500 0.040000
0.279688 0.817500 0.040000
0.312500 0.817500 0.040000
0.345313 0.817500 0.040000
0.378125 0.817500 0.040000
0.410938 0.817500 0.040000
0.443750 0.817500 0.040000
0.476562 0.817500 0.040000
0.509375 0.817500 0.040000
0.542188 0.817500 0.040000
0.575000 0.817500 0.040000
0.607813 0.817500 0.040000
0.640625 0.817500 0.040000
0.673438 0.817500 0.040000
0.706250 0.817500 0.040000
0.739063 0.817500 0.040000
0.771875 0.817500 0.040000
0.804688 0.817500 0.040000
0.837500 0.817500 0.040000
0.870313 0.817500 0.040000
0.903125 0.817500 0.040000
0.935938 0.817500 0.040000
0.968750 0.817500 0.040000
1.000000 0.817500 0.040000
1.000000 0.817500 0.040000
1.000000 0.817500 0.040000
1.000000 0.817500 0.040000
0.050000 0.850313 0.040000
0.082812 0.850313 0.040000
0.115625 0.850313 0.040000
0.148438 0.850313 0.040000
0.181250 0.850313 0.040000
0.214062 0.850313 0.040000
0.246875 0.850313 0.040000
0.279688 0.850313 0.040000
0.312500 0.850313 0.040000
0.345313 0.850313 0.040000
0.378125 0.850313 0.040000
0.410938 0.850313 0.040000
0.443750 0.850313 0.040000
0.476562 0.850313 0.040000
0.509375 0.850313 0.040000
0.542188 0.850313 0.040000
0.575000 0.850313 0.040000
0.607813 0.850313 0.040000
0.640625 0.850313 0.040000
0.673438 0.850313 0.040000
0.706250 0.850313 0.040000
0.739063 0.850313 0.040000
0.771875 0.850313 0.040000
0.804688 0.850313 0.040000
0.837500 0.850313 0.040000
0.870313 0.850313 0.040000
0.903125 0.850313 0.040000
0.935938 0.850313 0.040000
0.968750 0.850313 0.040000
1.000000 0.850313 0.040000
1.000000 0.850313 0.040000
1.000000 0.850313 0.040000
1.000000 0.850313 0.040000
0.050000 0.883125 0.040000
0.082812 0.883125 0.040000
0.115625 0.883125 0.040000
0.148438 0.883125 0.040000
0.181250 0.883125 0.040000
0.214062 0.883125 0.040000
0.246875 0.883125 0.040000
0.279688 0.883125 0.040000
0.312500 0.883125 0.040000
0.345313 0.883125 0.040000
0.378125 0.883125 0.040000
0.410938 0.883125 0.040000
0.443750 0.883125 0.040000
0.476562 0.883125 0.040000
0.509375 0.883125 0.040000
0.542188 0.883125 0.040000
0.575000 0.883125 0.040000
0.607813 0.883125 0.040000
0.640625 0.883125 0.040000
0.673438 0.883125 0.040000
0.706250 0.883125 0.040000
0.739063 0.883125 0.040000
0.771875 0.883125 0.040000
0.804688 0.883125 0.040000
0.837500 0.883125 0.040000
0.870313 0.883125 0.040000
0.903125 0.883125 0.040000
0.935938 0.883125 0.040000
