lut/aquaverse_fun.cube
LUT_3D_SIZE 5
DOMAIN_MIN 0.0 0.0 0.0
DOMAIN_MAX 1.0 1.0 1.0
0.050000 0.030000 0.040000
0.312500 0.030000 0.040000
0.575000 0.030000 0.040000
0.837500 0.030000 0.040000
1.000000 0.030000 0.040000
0.050000 0.292500 0.040000
0.312500 0.292500 0.040000
0.575000 0.292500 0.040000
0.837500 0.292500 0.040000
1.000000 0.292500 0.040000
0.050000 0.555000 0.040000
0.312500 0.555000 0.040000
0.575000 0.555000 0.040000
0.837500 0.555000 0.040000
1.000000 0.555000 0.040000
0.050000 0.817500 0.040000
0.312500 0.817500 0.040000
0.575000 0.817500 0.040000
0.837500 0.817500 0.040000
1.000000 0.817500 0.040000
0.050000 1.000000 0.040000
0.312500 1.000000 0.040000
0.575000 1.000000 0.040000
0.837500 1.000000 0.040000
1.000000 1.000000 0.040000
0.050000 0.030000 0.315000
0.312500 0.030000 0.315000
0.575000 0.030000 0.315000
0.837500 0.030000 0.315000
1.000000 0.030000 0.315000
0.050000 0.292500 0.315000
0.312500 0.292500 0.315000
0.575000 0.292500 0.315000
0.837500 0.292500 0.315000
1.000000 0.292500 0.315000
0.050000 0.555000 0.315000
0.312500 0.555000 0.315000
0.575000 0.555000 0.315000
0.837500 0.555000 0.315000
1.000000 0.555000 0.315000
0.050000 0.817500 0.315000
0.312500 0.817500 0.315000
0.575000 0.817500 0.315000
0.837500 0.817500 0.315000
1.000000 0.817500 0.315000
0.050000 1.000000 0.315000
0.312500 1.000000 0.315000
0.575000 1.000000 0.315000
0.837500 1.000000 0.315000
1.000000 1.000000 0.315000
0.050000 0.030000 0.590000
0.312500 0.030000 0.590000
0.575000 0.030000 0.590000
0.837500 0.030000 0.590000
1.000000 0.030000 0.590000
0.050000 0.292500 0.590000
0.312500 0.292500 0.590000
0.575000 0.292500 0.590000
0.837500 0.292500 0.590000
1.000000 0.292500 0.590000
0.050000 0.555000 0.590000
0.312500 0.555000 0.590000
0.575000 0.555000 0.590000
0.837500 0.555000 0.590000
1.000000 0.555000 0.590000
0.050000 0.817500 0.590000
0.312500 0.817500 0.590000
0.575000 0.817500 0.590000
0.837500 0.817500 0.590000
1.000000 0.817500 0.590000
0.050000 1.000000 0.590000
0.312500 1.000000 0.590000
0.575000 1.000000 0.590000
0.837500 1.000000 0.590000
1.000000 1.000000 0.590000
0.050000 0.030000 0.865000
0.312500 0.030000 0.865000
0.575000 0.030000 0.865000
0.837500 0.030000 0.865000
1.000000 0.030000 0.865000
0.050000 0.292500 0.865000
0.312500 0.292500 0.865000
0.575000 0.292500 0.865000
0.837500 0.292500 0.865000
1.000000 0.292500 0.865000
0.050000 0.555000 0.865000
0.312500 0.555000 0.865000
0.575000 0.555000 0.865000
0.837500 0.555000 0.865000
1.000000 0.555000 0.865000
0.050000 0.817500 0.865000
0.312500 0.817500 0.865000
0.575000 0.817500 0.865000
0.837500 0.817500 0.865000
1.000000 0.817500 0.865000
0.050000 1.000000 0.865000
0.312500 1.000000 0.865000
0.575000 1.000000 0.865000
0.837500 1.000000 0.865000
1.000000 1.000000 0.865000
0.050000 0.030000 0.990000
0.312500 0.030000 0.990000
0.575000 0.030000 0.990000
0.837500 0.030000 0.990000
1.000000 0.030000 0.990000
0.050000 0.292500 0.990000
0.312500 0.292500 0.990000
0.575000 0.292500 0.990000
0.837500 0.292500 0.990000
1.000000 0.292500 0.990000
0.050000 0.555000 0.990000
0.312500 0.555000 0.990000
0.575000 0.555000 0.990000
0.837500 0.555000 0.990000
1.000000 0.555000 0.990000
0.050000 0.817500 0.990000
0.312500 0.817500 0.990000
0.575000 0.817500 0.990000
0.837500 0.817500 0.990000
1.000000 0.817500 0.990000
0.050000 1.000000 0.990000
0.312500 1.000000 0.990000
0.575000 1.000000 0.990000
0.837500 1.000000 0.990000
1.000000 1.000000 0.990000
