lut/aquaverse_fun.cube
LUT_3D_SIZE 9
DOMAIN_MIN 0.0 0.0 0.0
DOMAIN_MAX 1.0 1.0 1.0
0.050000 0.030000 0.040000
0.181250 0.030000 0.040000
0.312500 0.030000 0.040000
0.443750 0.030000 0.040000
0.575000 0.030000 0.040000
0.706250 0.030000 0.040000
0.837500 0.030000 0.040000
0.968750 0.030000 0.040000
1.000000 0.030000 0.040000
0.050000 0.161250 0.040000
0.181250 0.161250 0.040000
0.312500 0.161250 0.040000
0.443750 0.161250 0.040000
0.575000 0.161250 0.040000
0.706250 0.161250 0.040000
0.837500 0.161250 0.040000
0.968750 0.161250 0.040000
1.000000 0.161250 0.040000
0.050000 0.292500 0.040000
0.181250 0.292500 0.040000
0.312500 0.292500 0.040000
0.443750 0.292500 0.040000
0.575000 0.292500 0.040000
0.706250 0.292500 0.040000
0.837500 0.292500 0.040000
0.968750 0.292500 0.040000
1.000000 0.292500 0.040000
0.050000 0.423750 0.040000
0.181250 0.423750 0.040000
0.312500 0.423750 0.040000
0.443750 0.423750 0.040000
0.575000 0.423750 0.040000
0.706250 0.423750 0.040000
0.837500 0.423750 0.040000
0.968750 0.423750 0.040000
1.000000 0.423750 0.040000
0.050000 0.555000 0.040000
0.181250 0.555000 0.040000
0.312500 0.555000 0.040000
0.443750 0.555000 0.040000
0.575000 0.555000 0.040000
0.706250 0.555000 0.040000
0.837500 0.555000 0.040000
0.968750 0.555000 0.040000
1.000000 0.555000 0.040000
0.050000 0.686250 0.040000
0.181250 0.686250 0.040000
0.312500 0.686250 0.040000
0.443750 0.686250 0.040000
0.575000 0.686250 0.040000
0.706250 0.686250 0.040000
0.837500 0.686250 0.040000
0.968750 0.686250 0.040000
1.000000 0.686250 0.040000
0.050000 0.817500 0.040000
0.181250 0.817500 0.040000
0.312500 0.817500 0.040000
0.443750 0.817500 0.040000
0.575000 0.817500 0.040000
0.706250 0.817500 0.040000
0.837500 0.817500 0.040000
0.968750 0.817500 0.040000
1.000000 0.817500 0.040000
0.050000 0.948750 0.040000
0.181250 0.948750 0.040000
0.312500 0.948750 0.040000
0.443750 0.948750 0.040000
0.575000 0.948750 0.040000
0.706250 0.948750 0.040000
0.837500 0.948750 0.040000
0.968750 0.948750 0.040000
1.000000 0.948750 0.040000
0.050000 1.000000 0.040000
0.181250 1.000000 0.040000
0.312500 1.000000 0.040000
0.443750 1.000000 0.040000
0.575000 1.000000 0.040000
0.706250 1.000000 0.040000
0.837500 1.000000 0.040000
0.968750 1.000000 0.040000
1.000000 1.000000 0.040000
0.050000 0.030000 0.177500
0.181250 0.030000 0.177500
0.312500 0.030000 0.177500
0.443750 0.030000 0.177500
0.575000 0.030000 0.177500
0.706250 0.030000 0.177500
0.837500 0.030000 0.177500
0.968750 0.030000 0.177500
1.000000 0.030000 0.177500
0.050000 0.161250 0.177500
0.181250 0.161250 0.177500
0.312500 0.161250 0.177500
0.443750 0.161250 0.177500
0.575000 0.161250 0.177500
0.706250 0.161250 0.177500
0.837500 0.161250 0.177500
0.968750 0.161250 0.177500
1.000000 0.161250 0.177500
0.050000 0.292500 0.177500
0.181250 0.292500 0.177500
0.312500 0.292500 0.177500
0.443750 0.292500 0.177500
0.575000 0.292500 0.177500
0.706250 0.292500 0.177500
0.837500 0.292500 0.177500
0.968750 0.292500 0.177500
1.000000 0.292500 0.177500
0.050000 0.423750 0.177500
0.181250 0.423750 0.177500
0.312500 0.423750 0.177500
0.443750 0.423750 0.177500
0.575000 0.423750 0.177500
0.706250 0.423750 0.177500
0.837500 0.423750 0.177500
0.968750 0.423750 0.177500
1.000000 0.423750 0.177500
0.050000 0.555000 0.177500
0.181250 0.555000 0.177500
0.312500 0.555000 0.177500
0.443750 0.555000 0.177500
0.575000 0.555000 0.177500
0.706250 0.555000 0.177500
0.837500 0.555000 0.177500
0.968750 0.555000 0.177500
1.000000 0.555000 0.177500
0.050000 0.686250 0.177500
0.181250 0.686250 0.177500
0.312500 0.686250 0.177500
0.443750 0.686250 0.177500
0.575000 0.686250 0.177500
0.706250 0.686250 0.177500
0.837500 0.686250 0.177500
0.968750 0.686250 0.177500
1.000000 0.686250 0.177500
0.050000 0.817500 0.177500
0.181250 0.817500 0.177500
0.312500 0.817500 0.177500
0.443750 0.817500 0.177500
0.575000 0.817500 0.177500
0.706250 0.817500 0.177500
0.837500 0.817500 0.177500
0.968750 0.817500 0.177500
1.000000 0.817500 0.177500
0.050000 0.948750 0.177500
0.181250 0.948750 0.177500
0.312500 0.948750 0.177500
0.443750 0.948750 0.177500
0.575000 0.948750 0.177500
0.706250 0.948750 0.177500
0.837500 0.948750 0.177500
0.968750 0.948750 0.177500
1.000000 0.948750 0.177500
0.050000 1.000000 0.177500
0.181250 1.000000 0.177500
0.312500 1.000000 0.177500
0.443750 1.000000 0.177500
0.575000 1.000000 0.177500
0.706250 1.000000 0.177500
0.837500 1.000000 0.177500
0.968750 1.000000 0.177500
1.000000 1.000000 0.177500
0.050000 0.030000 0.315000
0.181250 0.030000 0.315000
0.312500 0.030000 0.315000
0.443750 0.030000 0.315000
0.575000 0.030000 0.315000
0.706250 0.030000 0.315000
0.837500 0.030000 0.315000
0.968750 0.030000 0.315000
1.000000 0.030000 0.315000
0.050000 0.161250 0.315000
0.181250 0.161250 0.315000
0.312500 0.161250 0.315000
0.443750 0.161250 0.315000
0.575000 0.161250 0.315000
0.706250 0.161250 0.315000
0.837500 0.161250 0.315000
0.968750 0.161250 0.315000
1.000000 0.161250 0.315000
0.050000 0.292500 0.315000
0.181250 0.292500 0.315000
0.312500 0.292500 0.315000
0.443750 0.292500 0.315000
0.575000 0.292500 0.315000
0.706250 0.292500 0.315000
0.837500 0.292500 0.315000
0.968750 0.292500 0.315000
1.000000 0.292500 0.315000
0.050000 0.423750 0.315000
0.181250 0.423750 0.315000
0.312500 0.423750 0.315000
0.443750 0.423750 0.315000
0.575000 0.423750 0.315000
0.706250 0.423750 0.315000
0.837500 0.423750 0.315000
0.968750 0.423750 0.315000
1.000000 0.423750 0.315000
0.050000 0.555000 0.315000
0.181250 0.555000 0.315000
0.312500 0.555000 0.315000
0.443750 0.555000 0.315000
0.575000 0.555000 0.315000
0.706250 0.555000 0.315000
0.837500 0.555000 0.315000
0.968750 0.555000 0.315000
1.000000 0.555000 0.315000
0.050000 0.686250 0.315000
0.181250 0.686250 0.315000
0.312500 0.686250 0.315000
0.443750 0.686250 0.315000
0.575000 0.686250 0.315000
0.706250 0.686250 0.315000
0.837500 0.686250 0.315000
0.968750 0.686250 0.315000
1.000000 0.686250 0.315000
0.050000 0.817500 0.315000
0.181250 0.817500 0.315000
0.312500 0.817500 0.315000
0.443750 0.817500 0.315000
0.575000 0.817500 0.315000
0.706250 0.817500 0.315000
0.837500 0.817500 0.315000
0.968750 0.817500 0.315000
1.000000 0.817500 0.315000
0.050000 0.948750 0.315000
0.181250 0.948750 0.315000
0.312500 0.948750 0.315000
0.443750 0.948750 0.315000
0.575000 0.948750 0.315000
0.706250 0.948750 0.315000
0.837500 0.948750 0.315000
0.968750 0.948750 0.315000
1.000000 0.948750 0.315000
0.050000 1.000000 0.315000
0.181250 1.000000 0.315000
0.312500 1.000000 0.315000
0.443750 1.000000 0.315000
0.575000 1.000000 0.315000
0.706250 1.000000 0.315000
0.837500 1.000000 0.315000
0.968750 1.000000 0.315000
1.000000 1.000000 0.315000
0.050000 0.030000 0.452500
0.181250 0.030000 0.452500
0.312500 0.030000 0.452500
0.443750 0.030000 0.452500
0.575000 0.030000 0.452500
0.706250 0.030000 0.452500
0.837500 0.030000 0.452500
0.968750 0.030000 0.452500
1.000000 0.030000 0.452500
0.050000 0.161250 0.452500
0.181250 0.161250 0.452500
0.312500 0.161250 0.452500
0.443750 0.161250 0.452500
0.575000 0.161250 0.452500
0.706250 0.161250 0.452500
0.837500 0.161250 0.452500
0.968750 0.161250 0.452500
1.000000 0.161250 0.452500
0.050000 0.292500 0.452500
0.181250 0.292500 0.452500
0.312500 0.292500 0.452500
0.443750 0.292500 0.452500
0.575000 0.292500 0.452500
0.706250 0.292500 0.452500
0.837500 0.292500 0.452500
0.968750 0.292500 0.452500
1.000000 0.292500 0.452500
0.050000 0.423750 0.452500
0.181250 0.423750 0.452500
0.312500 0.423750 0.452500
0.443750 0.423750 0.452500
0.575000 0.423750 0.452500
0.706250 0.423750 0.452500
0.837500 0.423750 0.452500
0.968750 0.423750 0.452500
1.000000 0.423750 0.452500
0.050000 0.555000 0.452500
0.181250 0.555000 0.452500
0.312500 0.555000 0.452500
0.443750 0.555000 0.452500
0.575000 0.555000 0.452500
0.706250 0.555000 0.452500
0.837500 0.555000 0.452500
0.968750 0.555000 0.452500
1.000000 0.555000 0.452500
0.050000 0.686250 0.452500
0.181250 0.686250 0.452500
0.312500 0.686250 0.452500
0.443750 0.686250 0.452500
0.575000 0.686250 0.452500
0.706250 0.686250 0.452500
0.837500 0.686250 0.452500
0.968750 0.686250 0.452500
1.000000 0.686250 0.452500
0.050000 0.817500 0.452500
0.181250 0.817500 0.452500
0.312500 0.817500 0.452500
0.443750 0.817500 0.452500
0.575000 0.817500 0.452500
0.706250 0.817500 0.452500
0.837500 0.817500 0.452500
0.968750 0.817500 0.452500
1.000000 0.817500 0.452500
0.050000 0.948750 0.452500
0.181250 0.948750 0.452500
0.312500 0.948750 0.452500
0.443750 0.948750 0.452500
0.575000 0.948750 0.452500
0.706250 0.948750 0.452500
0.837500 0.948750 0.452500
0.968750 0.948750 0.452500
1.000000 0.948750 0.452500
0.050000 1.000000 0.452500
0.181250 1.000000 0.452500
0.312500 1.000000 0.452500
0.443750 1.000000 0.452500
0.575000 1.000000 0.452500
0.706250 1.000000 0.452500
0.837500 1.000000 0.452500
0.968750 1.000000 0.452500
1.000000 1.000000 0.452500
0.050000 0.030000 0.590000
0.181250 0.030000 0.590000
0.312500 0.030000 0.590000
0.443750 0.030000 0.590000
0.575000 0.030000 0.590000
0.706250 0.030000 0.590000
0.837500 0.030000 0.590000
0.968750 0.030000 0.590000
1.000000 0.030000 0.590000
0.050000 0.161250 0.590000
0.181250 0.161250 0.590000
0.312500 0.161250 0.590000
0.443750 0.161250 0.590000
0.575000 0.161250 0.590000
0.706250 0.161250 0.590000
0.837500 0.161250 0.590000
0.968750 0.161250 0.590000
1.000000 0.161250 0.590000
0.050000 0.292500 0.590000
0.181250 0.292500 0.590000
0.312500 0.292500 0.590000
0.443750 0.292500 0.590000
0.575000 0.292500 0.590000
0.706250 0.292500 0.590000
0.837500 0.292500 0.590000
0.968750 0.292500 0.590000
1.000000 0.292500 0.590000
0.050000 0.423750 0.590000
0.181250 0.423750 0.590000
0.312500 0.423750 0.590000
0.443750 0.423750 0.590000
0.575000 0.423750 0.590000
0.706250 0.423750 0.590000
0.837500 0.423750 0.590000
0.968750 0.423750 0.590000
1.000000 0.423750 0.590000
0.050000 0.555000 0.590000
0.181250 0.555000 0.590000
0.312500 0.555000 0.590000
0.443750 0.555000 0.590000
0.575000 0.555000 0.590000
0.706250 0.555000 0.590000
0.837500 0.555000 0.590000
0.968750 0.555000 0.590000
1.000000 0.555000 0.590000
0.050000 0.686250 0.590000
0.181250 0.686250 0.590000
0.312500 0.686250 0.590000
0.443750 0.686250 0.590000
0.575000 0.686250 0.590000
0.706250 0.686250 0.590000
0.837500 0.686250 0.590000
0.968750 0.686250 0.590000
1.000000 0.686250 0.590000
0.050000 0.817500 0.590000
0.181250 0.817500 0.590000
0.312500 0.817500 0.590000
0.443750 0.817500 0.590000
0.575000 0.817500 0.590000
0.706250 0.817500 0.590000
0.837500 0.817500 0.590000
0.968750 0.817500 0.590000
1.000000 0.817500 0.590000
0.050000 0.948750 0.590000
0.181250 0.948750 0.590000
0.312500 0.948750 0.590000
0.443750 0.948750 0.590000
0.575000 0.948750 0.590000
0.706250 0.948750 0.590000
0.837500 0.948750 0.590000
0.968750 0.948750 0.590000
1.000000 0.948750 0.590000
0.050000 1.000000 0.590000
0.181250 1.000000 0.590000
0.312500 1.000000 0.590000
0.443750 1.000000 0.590000
0.575000 1.000000 0.590000
0.706250 1.000000 0.590000
0.837500 1.000000 0.590000
0.968750 1.000000 0.590000
1.000000 1.000000 0.590000
0.050000 0.030000 0.727500
0.181250 0.030000 0.727500
0.312500 0.030000 0.727500
0.443750 0.030000 0.727500
0.575000 0.030000 0.727500
0.706250 0.030000 0.727500
0.837500 0.030000 0.727500
0.968750 0.030000 0.727500
1.000000 0.030000 0.727500
0.050000 0.161250 0.727500
0.181250 0.161250 0.727500
0.312500 0.161250 0.727500
0.443750 0.161250 0.727500
0.575000 0.161250 0.727500
0.706250 0.161250 0.727500
0.837500 0.161250 0.727500
0.968750 0.161250 0.727500
1.000000 0.161250 0.727500
0.050000 0.292500 0.727500
0.181250 0.292500 0.727500
0.312500 0.292500 0.727500
0.443750 0.292500 0.727500
0.575000 0.292500 0.727500
0.706250 0.292500 0.727500
0.837500 0.292500 0.727500
0.968750 0.292500 0.727500
1.000000 0.292500 0.727500
0.050000 0.423750 0.727500
0.181250 0.423750 0.727500
0.312500 0.423750 0.727500
0.443750 0.423750 0.727500
0.575000 0.423750 0.727500
0.706250 0.423750 0.727500
0.837500 0.423750 0.727500
0.968750 0.423750 0.727500
1.000000 0.423750 0.727500
0.050000 0.555000 0.727500
0.181250 0.555000 0.727500
0.312500 0.555000 0.727500
0.443750 0.555000 0.727500
0.575000 0.555000 0.727500
0.706250 0.555000 0.727500
0.837500 0.555000 0.727500
0.968750 0.555000 0.727500
1.000000 0.555000 0.727500
0.050000 0.686250 0.727500
0.181250 0.686250 0.727500
0.312500 0.686250 0.727500
0.443750 0.686250 0.727500
0.575000 0.686250 0.727500
0.706250 0.686250 0.727500
0.837500 0.686250 0.727500
0.968750 0.686250 0.727500
1.000000 0.686250 0.727500
0.050000 0.817500 0.727500
0.181250 0.817500 0.727500
0.312500 0.817500 0.727500
0.443750 0.817500 0.727500
0.575000 0.817500 0.727500
0.706250 0.817500 0.727500
0.837500 0.817500 0.727500
0.968750 0.817500 0.727500
1.000000 0.817500 0.727500
0.050000 0.948750 0.727500
0.181250 0.948750 0.727500
0.312500 0.948750 0.727500
0.443750 0.948750 0.727500
0.575000 0.948750 0.727500
0.706250 0.948750 0.727500
0.837500 0.948750 0.727500
0.968750 0.948750 0.727500
1.000000 0.948750 0.727500
0.050000 1.000000 0.727500
0.181250 1.000000 0.727500
0.312500 1.000000 0.727500
0.443750 1.000000 0.727500
0.575000 1.000000 0.727500
0.706250 1.000000 0.727500
0.837500 1.000000 0.727500
0.968750 1.000000 0.727500
1.000000 1.000000 0.727500
0.050000 0.030000 0.865000
0.181250 0.030000 0.865000
0.312500 0.030000 0.865000
0.443750 0.030000 0.865000
0.575000 0.030000 0.865000
0.706250 0.030000 0.865000
0.837500 0.030000 0.865000
0.968750 0.030000 0.865000
1.000000 0.030000 0.865000
0.050000 0.161250 0.865000
0.181250 0.161250 0.865000
0.312500 0.161250 0.865000
0.443750 0.161250 0.865000
0.575000 0.161250 0.865000
0.706250 0.161250 0.865000
0.837500 0.161250 0.865000
0.968750 0.161250 0.865000
1.000000 0.161250 0.865000
0.050000 0.292500 0.865000
0.181250 0.292500 0.865000
0.312500 0.292500 0.865000
0.443750 0.292500 0.865000
0.575000 0.292500 0.865000
0.706250 0.292500 0.865000
0.837500 0.292500 0.865000
0.968750 0.292500 0.865000
1.000000 0.292500 0.865000
0.050000 0.423750 0.865000
0.181250 0.423750 0.865000
0.312500 0.423750 0.865000
0.443750 0.423750 0.865000
0.575000 0.423750 0.865000
0.706250 0.423750 0.865000
0.837500 0.423750 0.865000
0.968750 0.423750 0.865000
1.000000 0.423750 0.865000
0.050000 0.555000 0.865000
0.181250 0.555000 0.865000
0.312500 0.555000 0.865000
0.443750 0.555000 0.865000
0.575000 0.555000 0.865000
0.706250 0.555000 0.865000
0.837500 0.555000 0.865000
0.968750 0.555000 0.865000
1.000000 0.555000 0.865000
0.050000 0.686250 0.865000
0.181250 0.686250 0.865000
0.312500 0.686250 0.865000
0.443750 0.686250 0.865000
0.575000 0.686250 0.865000
0.706250 0.686250 0.865000
0.837500 0.686250 0.865000
0.968750 0.686250 0.865000
1.000000 0.686250 0.865000
0.050000 0.817500 0.865000
0.181250 0.817500 0.865000
0.312500 0.817500 0.865000
0.443750 0.817500 0.865000
0.575000 0.817500 0.865000
0.706250 0.817500 0.865000
0.837500 0.817500 0.865000
0.968750 0.817500 0.865000
1.000000 0.817500 0.865000
0.050000 0.948750 0.865000
0.181250 0.948750 0.865000
0.312500 0.948750 0.865000
0.443750 0.948750 0.865000
0.575000 0.948750 0.865000
0.706250 0.948750 0.865000
0.837500 0.948750 0.865000
0.968750 0.948750 0.865000
1.000000 0.948750 0.865000
0.050000 1.000000 0.865000
0.181250 1.000000 0.865000
0.312500 1.000000 0.865000
0.443750 1.000000 0.865000
0.575000 1.000000 0.865000
0.706250 1.000000 0.865000
0.837500 1.000000 0.865000
0.968750 1.000000 0.865000
1.000000 1.000000 0.865000
0.050000 0.030000 0.990000
0.181250 0.030000 0.990000
0.312500 0.030000 0.990000
0.443750 0.030000 0.990000
0.575000 0.030000 0.990000
0.706250 0.030000 0.990000
0.837500 0.030000 0.990000
0.968750 0.030000 0.990000
1.000000 0.030000 0.990000
0.050000 0.161250 0.990000
0.181250 0.161250 0.990000
0.312500 0.161250 0.990000
0.443750 0.161250 0.990000
0.575000 0.161250 0.990000
0.706250 0.161250 0.990000
0.837500 0.161250 0.990000
0.968750 0.161250 0.990000
1.000000 0.161250 0.990000
0.050000 0.292500 0.990000
0.181250 0.292500 0.990000
0.312500 0.292500 0.990000
0.443750 0.292500 0.990000
0.575000 0.292500 0.990000
0.706250 0.292500 0.990000
0.837500 0.292500 0.990000
0.968750 0.292500 0.990000
1.000000 0.292500 0.990000
0.050000 0.423750 0.990000
0.181250 0.423750 0.990000
0.312500 0.423750 0.990000
0.443750 0.423750 0.990000
0.575000 0.423750 0.990000
0.706250 0.423750 0.990000
0.837500 0.423750 0.990000
0.968750 0.423750 0.990000
1.000000 0.423750 0.990000
0.050000 0.555000 0.990000
0.181250 0.555000 0.990000
0.312500 0.555000 0.990000
0.443750 0.555000 0.990000
0.575000 0.555000 0.990000
0.706250 0.555000 0.990000
0.837500 0.555000 0.990000
0.968750 0.555000 0.990000
1.000000 0.555000 0.990000
0.050000 0.686250 0.990000
0.181250 0.686250 0.990000
0.312500 0.686250 0.990000
0.443750 0.686250 0.990000
0.575000 0.686250 0.990000
0.706250 0.686250 0.990000
0.837500 0.686250 0.990000
0.968750 0.686250 0.990000
1.000000 0.686250 0.990000
0.050000 0.817500 0.990000
0.181250 0.817500 0.990000
0.312500 0.817500 0.990000
0.443750 0.817500 0.990000
0.575000 0.817500 0.990000
0.706250 0.817500 0.990000
0.837500 0.817500 0.990000
0.968750 0.817500 0.990000
1.000000 0.817500 0.990000
0.050000 0.948750 0.990000
0.181250 0.948750 0.990000
0.312500 0.948750 0.990000
0.443750 0.948750 0.990000
0.575000 0.948750 0.990000
0.706250 0.948750 0.990000
0.837500 0.948750 0.990000
0.968750 0.948750 0.990000
1.000000 0.948750 0.990000
0.050000 1.000000 0.990000
0.181250 1.000000 0.990000
0.312500 1.000000 0.990000
0.443750 1.000000 0.990000
0.575000 1.000000 0.990000
0.706250 1.000000 0.990000
0.837500 1.000000 0.990000
0.968750 1.000000 0.990000
1.000000 1.000000 0.990000
0.050000 0.030000 0.990000
0.181250 0.030000 0.990000
0.312500 0.030000 0.990000
0.443750 0.030000 0.990000
0.575000 0.030000 0.990000
0.706250 0.030000 0.990000
0.837500 0.030000 0.990000
0.968750 0.030000 0.990000
1.000000 0.030000 0.990000
0.050000 0.161250 0.990000
0.181250 0.161250 0.990000
0.312500 0.161250 0.990000
0.443750 0.161250 0.990000
0.575000 0.161250 0.990000
0.706250 0.161250 0.990000
0.837500 0.161250 0.990000
0.968750 0.161250 0.990000
1.000000 0.161250 0.990000
0.050000 0.292500 0.990000
0.181250 0.292500 0.990000
0.312500 0.292500 0.990000
0.443750 0.292500 0.990000
0.575000 0.292500 0.990000
0.706250 0.292500 0.990000
0.837500 0.292500 0.990000
0.968750 0.292500 0.990000
1.000000 0.292500 0.990000
0.050000 0.423750 0.990000
0.181250 0.423750 0.990000
0.312500 0.423750 0.990000
0.443750 0.423750 0.990000
0.575000 0.423750 0.990000
0.706250 0.423750 0.990000
0.837500 0.423750 0.990000
0.968750 0.423750 0.990000
1.000000 0.423750 0.990000
0.050000 0.555000 0.990000
0.181250 0.555000 0.990000
0.312500 0.555000 0.990000
0.443750 0.555000 0.990000
0.575000 0.555000 0.990000
0.706250 0.555000 0.990000
0.837500 0.555000 0.990000
0.968750 0.555000 0.990000
1.000000 0.555000 0.990000
0.050000 0.686250 0.990000
0.181250 0.686250 0.990000
0.312500 0.686250 0.990000
0.443750 0.686250 0.990000
0.575000 0.686250 0.990000
0.706250 0.686250 0.990000
0.837500 0.686250 0.990000
0.968750 0.686250 0.990000
1.000000 0.686250 0.990000
0.050000 0.817500 0.990000
0.181250 0.817500 0.990000
0.312500 0.817500 0.990000
0.443750 0.817500 0.990000
0.575000 0.817500 0.990000
0.706250 0.817500 0.990000
0.837500 0.817500 0.990000
0.968750 0.817500 0.990000
1.000000 0.817500 0.990000
0.050000 0.948750 0.990000
0.181250 0.948750 0.990000
0.312500 0.948750 0.990000
0.443750 0.948750 0.990000
0.575000 0.948750 0.990000
0.706250 0.948750 0.990000
0.837500 0.948750 0.990000
0.968750 0.948750 0.990000
1.000000 0.948750 0.990000
0.050000 1.000000 0.990000
0.181250 1.000000 0.990000
0.312500 1.000000 0.990000
0.443750 1.000000 0.990000
0.575000 1.000000 0.990000
0.706250 1.000000 0.990000
0.837500 1.000000 0.990000
0.968750 1.000000 0.990000
1.000000 1.000000 0.990000
